X: 1458
T: The Lightning Flash
M:C|
L:1/8
N:"collected by McFadden"
B:O'Neill's 1458
Z:"Transcribed by Bob Safranek, rjs@gsp.org"
Z:Ornament (~) is a turn.
K:G
(dc) | BG{A}GB AFDE | FEFG    Adgd    | BG{A}GB AGFA | ((3Bcd) cA G2  dc  |
       BG{A}GB AFDE | FEFG ((3ABc) de | ~f2 fd  ecAc |   BGAF     G2      ||
(Bc) | dgga    bgaf | dcde    fdcA    | dgga    bgag |   fdcA     G2 (Bc) |
       dgga    bgaf | dcde    fefg    | abag    fgag |   fdcA     G2      |]


